build/img/category2__img_11.svg

<svg width="64" height="64" fill="none" xmlns="http://www.w3.org/2000/svg"><g opacity=".4"><path d="M46.938 52H17.061v-5.364c0-.939-.417-1.768-1.062-2.334V19h32v25.302a3.095 3.095 0 00-1.063 2.334V52z" stroke="#333" stroke-width="2"/><path d="M56.564 7.779C56.834 7.24 57 6.642 57 6c0-2.206-1.794-4-4-4s-4 1.794-4 4h2c0-1.103.897-2 2-2s2 .897 2 2-.897 2-2 2c-2.468 0-4.4-1.363-6.639-2.941C43.663 3.156 40.604 1 36 1c-1.641 0-3.088.806-4 2.031C31.088 1.806 29.641 1 28 1c-4.604 0-7.663 2.156-10.361 4.059C15.4 6.637 13.468 8 11 8c-1.103 0-2-.897-2-2s.897-2 2-2 2 .897 2 2h2c0-2.206-1.794-4-4-4S7 3.794 7 6c0 .643.167 1.243.438 1.782l-.012.005L10 14.193V56c0 1.371.93 2.518 2.188 2.874L13.219 63h9.562l.999-4h16.44l.999 4h9.562l1.031-4.126A2.994 2.994 0 0054 56V14.193l2.575-6.41-.011-.004zM18.791 6.693C21.367 4.878 24.03 3 28 3c1.654 0 3 1.346 3 3s-1.346 3-3 3-3-1.346-3-3V5h-2v1c0 2.757 2.243 5 5 5 1.641 0 3.088-.806 4-2.031.912 1.225 2.359 2.031 4 2.031 2.757 0 5-2.243 5-5V5h-2v1c0 1.654-1.346 3-3 3s-3-1.346-3-3 1.346-3 3-3c3.97 0 6.633 1.878 9.209 3.693C47.515 8.319 49.898 10 53 10c.189 0 .37-.03.552-.056L52.324 13H11.676l-1.228-3.056c.182.026.363.056.552.056 3.102 0 5.485-1.681 7.791-3.307zM52 43.184A2.966 2.966 0 0051 43h-2c-1.654 0-3 1.346-3 3v5H18v-5c0-1.654-1.346-3-3-3h-2c-.352 0-.686.072-1 .184V15h40v28.184zM21.219 61h-6.438l-.501-2h7.439l-.5 2zm21.562 0l-.501-2h7.439l-.501 2h-6.437zM52 56a1 1 0 01-1 1H13a1 1 0 01-1-1V46a1 1 0 011-1h2a1 1 0 011 1v7h32v-7a1 1 0 011-1h2a1 1 0 011 1v10z" fill="#333"/><path d="M35 5h2v2h-2V5zm-8 0h2v2h-2V5zm.287 18.709l1.414-1.414 15.997 15.997-1.414 1.414L27.287 23.71zm-4 3.999l1.414-1.414 15.997 15.997-1.414 1.414-15.997-15.997zm-4 3.999l1.414-1.414L36.698 46.29l-1.414 1.414-15.997-15.997z" fill="#333"/></g></svg>

<svg width="64" height="64" viewBox="0 0 64 64" fill="none" xmlns="http://www.w3.org/2000/svg">
<g opacity="0.4">
<path d="M46.9375 52H17.0625V46.6364C17.0625 45.6975 16.6446 44.8684 16 44.3024V19H48V44.3024C47.3554 44.8684 46.9375 45.6975 46.9375 46.6364V52Z" stroke="#333333" stroke-width="2"/>
<path d="M56.564 7.779C56.834 7.24 57 6.642 57 6C57 3.794 55.206 2 53 2C50.794 2 49 3.794 49 6H51C51 4.897 51.897 4 53 4C54.103 4 55 4.897 55 6C55 7.103 54.103 8 53 8C50.532 8 48.6 6.637 46.361 5.059C43.663 3.156 40.604 1 36 1C34.359 1 32.912 1.806 32 3.031C31.088 1.806 29.641 1 28 1C23.396 1 20.337 3.156 17.639 5.059C15.4 6.637 13.468 8 11 8C9.897 8 9 7.103 9 6C9 4.897 9.897 4 11 4C12.103 4 13 4.897 13 6H15C15 3.794 13.206 2 11 2C8.794 2 7 3.794 7 6C7 6.643 7.167 7.243 7.438 7.782L7.426 7.787L10 14.193V46V52V56C10 57.371 10.93 58.518 12.188 58.874L13.219 63H22.781L23.78 59H40.22L41.219 63H50.781L51.812 58.874C53.07 58.518 54 57.371 54 56V52V46V14.193L56.575 7.783L56.564 7.779ZM18.791 6.693C21.367 4.878 24.03 3 28 3C29.654 3 31 4.346 31 6C31 7.654 29.654 9 28 9C26.346 9 25 7.654 25 6V5H23V6C23 8.757 25.243 11 28 11C29.641 11 31.088 10.194 32 8.969C32.912 10.194 34.359 11 36 11C38.757 11 41 8.757 41 6V5H39V6C39 7.654 37.654 9 36 9C34.346 9 33 7.654 33 6C33 4.346 34.346 3 36 3C39.97 3 42.633 4.878 45.209 6.693C47.515 8.319 49.898 10 53 10C53.189 10 53.37 9.97 53.552 9.944L52.324 13H11.676L10.448 9.944C10.63 9.97 10.811 10 11 10C14.102 10 16.485 8.319 18.791 6.693ZM52 43.184C51.686 43.072 51.352 43 51 43H49C47.346 43 46 44.346 46 46V51H18V46C18 44.346 16.654 43 15 43H13C12.648 43 12.314 43.072 12 43.184V15H52V43.184ZM21.219 61H14.781L14.28 59H21.719L21.219 61ZM42.781 61L42.28 59H49.719L49.218 61H42.781ZM52 56C52 56.552 51.552 57 51 57H13C12.448 57 12 56.552 12 56V52V46C12 45.448 12.448 45 13 45H15C15.552 45 16 45.448 16 46V53H48V46C48 45.448 48.448 45 49 45H51C51.552 45 52 45.448 52 46V52V56Z" fill="#333333"/>
<path d="M35 5H37V7H35V5Z" fill="#333333"/>
<path d="M27 5H29V7H27V5Z" fill="#333333"/>
<path d="M27.2871 23.709L28.7011 22.295L44.6984 38.2923L43.2844 39.7063L27.2871 23.709Z" fill="#333333"/>
<path d="M23.2871 27.708L24.7011 26.294L40.6984 42.2913L39.2844 43.7053L23.2871 27.708Z" fill="#333333"/>
<path d="M19.2871 31.707L20.7011 30.293L36.6984 46.2903L35.2844 47.7043L19.2871 31.707Z" fill="#333333"/>
</g>
</svg>
